X: 21342
T: Wate you how the Play began
%R: air, strathspey
B: James Oswald "The Caledonian Pocket Companion" v.2 p.134 #2
Z: 2018 John Chambers <jc:trillian.mit.edu>
N: All the c notes are sharp, so the key should be Amix rather than Ador.
M: C
L: 1/8
K: Ador
"_Brisk"f |\
e>A A/A/A e>dB>d | e>A A/A/A G>AB>d | e>A A/A/A e>dB>d | e>dg>B A2A :|
|: a |\
e>de>g a>ba>g | d>gd>B G>AB>d | e>de>g a>ba>g | e>gB>g A2A :|
|: a |\
e>B^c>A f>e ^c<a | e>A T^c>A d>G B<a | e>A^c>A f>e ^c<a | d>Bg>B A2A :|
|: a |\
e<a a>g e<a a>g | d>gB>g G>g B>g | e<a a>g e<a a>g | e>dg>B A2A :|

% Page 135 starts with 6 staffs from the previous page.


